svg/rails.svg

<svg width="20" height="10" xmlns="http://www.w3.org/2000/svg"><path d="M16 6H6v4H4V6H2V4h2V0h2v4h10V0h2v4h2v2h-2v4h-2V6Z" fill="#000" fill-rule="evenodd"/></svg>

<?xml version="1.0" encoding="UTF-8" standalone="no"?>
<svg width="20px" height="10px" viewBox="0 0 20 10" version="1.1" xmlns="http://www.w3.org/2000/svg" xmlns:xlink="http://www.w3.org/1999/xlink">
    <!-- Generator: Sketch 40.1 (33804) - http://www.bohemiancoding.com/sketch -->
    <title>rails</title>
    <desc>Created with Sketch.</desc>
    <defs></defs>
    <g id="Page-1" stroke="none" stroke-width="1" fill="none" fill-rule="evenodd">
        <g id="rails" fill="#000000">
            <path d="M16,6 L6,6 L6,10 L4,10 L4,6 L2,6 L2,4 L4,4 L4,0 L6,0 L6,4 L16,4 L16,0 L18,0 L18,4 L20,4 L20,6 L18,6 L18,10 L16,10 L16,6 Z" id="Combined-Shape"></path>
        </g>
    </g>
</svg>
